.icons/oomox-ad/48x48/apps/bitwarden.svg

<svg xmlns="http://www.w3.org/2000/svg" width="48" height="48" version="1">
 <rect style="opacity:0.2" width="40" height="40" x="4" y="5" rx="2" ry="2"/>
 <rect style="fill:#2f91c9" width="40" height="40" x="4" y="4" rx="2" ry="2"/>
 <path style="opacity:0.2;fill:#ffffff" d="M 6,4 C 4.892,4 4,4.892 4,6 V 7 C 4,5.892 4.892,5 6,5 h 36 c 1.108,0 2,0.892 2,2 V 6 C 44,4.892 43.108,4 42,4 Z"/>
 <path style="opacity:0.2" d="M 24,10.999837 C 13.130791,11.0002 12.853499,11.005302 12.570312,11.173665 11.969152,11.531153 12,11.090819 12,19.425618 c 0,8.457962 -0.01151,8.287486 0.644531,9.927735 0.754646,1.886844 1.969493,3.481909 3.964844,5.214843 1.674225,1.45404 3.660978,2.769 5.875,3.886719 0.749033,0.378137 1.135253,0.55117 1.515625,0.544922 0.380373,0.0062 0.766592,-0.166785 1.515625,-0.544922 2.214022,-1.117719 4.200775,-2.432679 5.875,-3.886719 1.995351,-1.732934 3.210198,-3.327999 3.964844,-5.214843 C 36.011506,27.713104 36,27.88358 36,19.425618 36,11.090813 36.030847,11.531153 35.429688,11.173665 35.146501,11.005303 34.86921,11.0002 24,10.999837 Z m 0,4 c 4.498719,1.5e-4 6.384917,0.007 7.966797,0.01953 0.01369,1.112261 0.0332,1.719181 0.0332,4.40625 0,4.230797 -0.0086,6.34033 -0.06836,7.261719 -0.05977,0.921389 0.05174,0.32271 -0.291016,1.179688 -0.493858,1.234795 -1.188943,2.21902 -2.873047,3.68164 C 27.454549,32.689016 25.81182,33.750964 24,34.695149 Z"/>
 <path style="fill:#ffffff" d="M 24 10 C 13.130791 10.000363 12.853499 10.005465 12.570312 10.173828 C 11.969152 10.531316 12 10.090982 12 18.425781 C 12 26.883743 11.988494 26.713267 12.644531 28.353516 C 13.399177 30.24036 14.614024 31.835425 16.609375 33.568359 C 18.2836 35.022399 20.270353 36.337359 22.484375 37.455078 C 23.233408 37.833215 23.619628 38.006248 24 38 C 24.380373 38.0062 24.766592 37.833215 25.515625 37.455078 C 27.729647 36.337359 29.7164 35.022399 31.390625 33.568359 C 33.385976 31.835425 34.600823 30.24036 35.355469 28.353516 C 36.011506 26.713267 36 26.883743 36 18.425781 C 36 10.090976 36.030847 10.531316 35.429688 10.173828 C 35.146501 10.005466 34.86921 10.000363 24 10 z M 24 14 C 28.498719 14.00015 30.384917 14.007001 31.966797 14.019531 C 31.980487 15.131792 32 15.738712 32 18.425781 C 32 22.656578 31.991401 24.766111 31.931641 25.6875 C 31.871871 26.608889 31.983381 26.01021 31.640625 26.867188 C 31.146767 28.101983 30.451682 29.086208 28.767578 30.548828 C 27.454549 31.689179 25.81182 32.751127 24 33.695312 L 24 14 z"/>
</svg>

<svg xmlns="http://www.w3.org/2000/svg" width="48" height="48" version="1">
 <rect style="opacity:0.2" width="40" height="40" x="4" y="5" rx="2" ry="2"/>
 <rect style="fill:#175ddc" width="40" height="40" x="4" y="4" rx="2" ry="2"/>
 <path style="opacity:0.1;fill:#ffffff" d="M 6,4 C 4.892,4 4,4.892 4,6 V 7 C 4,5.892 4.892,5 6,5 h 36 c 1.108,0 2,0.892 2,2 V 6 C 44,4.892 43.108,4 42,4 Z"/>
 <path style="opacity:0.2" d="M 24,11 C 24,11 12.853,11.005 12.57,11.174 11.969,11.531 12,11.091 12,19.426 12,27.884 11.988,27.713 12.645,29.354 13.399,31.24 14.614,32.835 16.609,34.568 18.284,36.022 20.27,37.337 22.484,38.455 23.233,38.833 23.62,39.006 24,39 24.38,39.006 24.767,38.833 25.516,38.455 27.73,37.337 29.716,36.022 31.391,34.568 33.386,32.835 34.601,31.24 35.355,29.354 36.012,27.713 36,27.884 36,19.426 36,11.091 36.031,11.531 35.43,11.174 35.147,11.005 24,11 24,11 Z M 24,15 H 32 V 26.5 C 32,26.5 31.983,27.01 31.641,27.867 31.147,29.102 30.452,30.086 28.768,31.549 27.455,32.689 25.812,33.751 24,34.695 Z"/>
 <path style="fill:#efefef" d="M 24,9.9998 C 24,9.9998 12.853,10.005 12.57,10.174 11.969,10.531 12,10.091 12,18.426 12,26.884 11.988,26.713 12.645,28.354 13.399,30.24 14.614,31.835 16.609,33.568 18.284,35.022 20.27,36.337 22.484,37.455 23.233,37.833 23.62,38.006 24,38 24.38,38.006 24.767,37.833 25.516,37.455 27.73,36.337 29.716,35.022 31.391,33.568 33.386,31.835 34.601,30.24 35.355,28.354 36.012,26.713 36,26.884 36,18.426 36,10.091 36.031,10.531 35.43,10.174 35.147,10.005 24,9.9998 24,9.9998 Z M 24,14 H 32 V 25.5 C 32,25.5 31.983,26.01 31.641,26.867 31.147,28.102 30.452,29.086 28.768,30.549 27.455,31.689 25.812,32.751 24,33.695 Z"/>
</svg>
